X:280
T:The Dawn
R:reel
M:4/4
L:1/8
K:Gmaj
GBdB c2ec|d2Bd ~G3B|ADBD cDBG|AcBA GEDB|
GBdB c2ec|d2Bd ~G3d|edef gedc|BdAd BG~G2:||
~g3d edBd|eaaf gfed|(3fed ad bdad|gbdg bdef|
~g3d edBd|cBAB cdef|gBfB eBdB|cBAc BG~G3:||

